plasma/desktoptheme/Materia/icons/yakuake.svg

<svg xmlns="http://www.w3.org/2000/svg" width="32" height="32" version="1.1">
 <g id="yakuake">
  <rect style="opacity:0.001" width="32" height="32" x="0" y="0"/>
  <rect style="opacity:0.2" width="24" height="22.667" x="4" y="6.33" rx="1.2" ry="1.133"/>
  <rect style="fill:#4f4f4f" width="24" height="22.667" x="4" y="5.33" rx="1.2" ry="1.133"/>
  <rect style="opacity:0.2" width="30" height="3" x="1" y="5" rx="1.364" ry="1.5"/>
  <rect style="fill:#a5b1b3" width="30" height="3" x="1" y="4" rx="1.364" ry="1.5"/>
  <path style="opacity:0.2" d="M 10.40625,11.992188 8.9921875,13.40625 12.585938,17 8.9921875,20.59375 10.40625,22.007812 14.707031,17.707031 19.007812,13.40625 17.59375,11.992188 14,15.585938 Z M 16,23 v 2 h 8 v -2 z"/>
  <path style="fill:none;stroke:#3498db;stroke-width:2" d="m 16,23 h 8"/>
  <path style="fill:none;stroke:#236ac6;stroke-width:2" d="M 18.3,11.7 14,16"/>
  <path style="opacity:0.1;fill:#ffffff" d="m 17.59375,10.992188 -4.300781,4.300781 0.5,0.5 3.800781,-3.800781 0.914062,0.914062 0.5,-0.5 z"/>
  <path style="fill:none;stroke:#3498db;stroke-width:2" d="M 9.7,11.7 14,16 9.7,20.3"/>
  <path style="opacity:0.2;fill:#ffffff" d="M 2.3632812,4 C 1.6078267,4 1,4.669 1,5.5 1,5.6767779 1.0333765,5.842765 1.0839844,6 1.2712747,5.4181029 1.7685339,5 2.3632812,5 H 29.636719 c 0.594747,0 1.092006,0.4181029 1.279297,1 C 30.966624,5.842765 31,5.6767779 31,5.5 31,4.669 30.392173,4 29.636719,4 Z"/>
  <path style="opacity:0.2;fill:#ffffff" d="m 16,22 v 1 h 8 v -1 z"/>
  <path style="opacity:0.2;fill:#ffffff" d="m 10.40625,10.992188 -1.4140625,1.414062 0.5,0.5 0.9140625,-0.914062 4.507812,4.507812 0.5,-0.5 z M 12.085938,16.5 l -3.0937505,3.09375 0.5,0.5 L 12.585938,17 Z"/>
 </g>
 <g id="22-22-yakuake" transform="translate(27,5)">
  <rect style="opacity:0.001" width="22" height="22" x="5" y="5"/>
  <path style="opacity:0.35;fill:#dfdfdf" d="m 18.595703,7.9902344 -5.298828,5.2988276 1.414063,1.414063 5.298828,-5.2988281 z"/>
  <path style="fill:#dfdfdf" d="M 9.4140625,7.9902344 8,9.4042969 12.589844,13.996094 8,18.585938 9.4140625,20 15.419922,13.996094 Z M 14.287109,22 v 2 H 24 v -2 z"/>
 </g>
</svg>

<?xml version="1.0" encoding="UTF-8"?>
<svg width="32" height="32" version="1.1" xmlns="http://www.w3.org/2000/svg">
 <g id="yakuake">
  <rect width="32" height="32" opacity=".001"/>
  <rect x="4" y="6.33" width="24" height="22.667" rx="1.2" ry="1.133" opacity=".2"/>
  <rect x="4" y="5.33" width="24" height="22.667" rx="1.2" ry="1.133" fill="#4f4f4f"/>
  <rect x="1" y="5" width="30" height="3" rx="1.364" ry="1.5" opacity=".2"/>
  <rect x="1" y="4" width="30" height="3" rx="1.364" ry="1.5" fill="#a5b1b3"/>
  <path d="m10.406 11.992-1.4141 1.4141 3.5938 3.5938-3.5938 3.5938 1.4141 1.4141 8.6016-8.6016-1.4141-1.4141-3.5938 3.5938zm5.5938 11.008v2h8v-2z" opacity=".2"/>
  <path d="m16 23h8" fill="none" stroke="#3498db" stroke-width="2"/>
  <path d="M 18.3,11.7 14,16" fill="none" stroke="#236ac6" stroke-width="2"/>
  <path d="m17.594 10.992-4.3008 4.3008 0.5 0.5 3.8008-3.8008 0.91406 0.91406 0.5-0.5z" fill="#fff" opacity=".1"/>
  <path d="m9.7 11.7 4.3 4.3-4.3 4.3" fill="none" stroke="#3498db" stroke-width="2"/>
  <path d="m2.3633 4c-0.75545 0-1.3633 0.669-1.3633 1.5 0 0.17678 0.033376 0.34276 0.083984 0.5 0.18729-0.5819 0.68455-1 1.2793-1h27.273c0.59475 0 1.092 0.4181 1.2793 1 0.050608-0.15724 0.083984-0.32322 0.083984-0.5 0-0.831-0.60783-1.5-1.3633-1.5z" fill="#fff" opacity=".2"/>
  <path d="m16 22v1h8v-1z" fill="#fff" opacity=".2"/>
  <path d="m10.406 10.992-1.4141 1.4141 0.5 0.5 0.91406-0.91406 4.5078 4.5078 0.5-0.5zm1.6797 5.5078-3.0938 3.0938 0.5 0.5 3.0938-3.0938z" fill="#fff" opacity=".2"/>
 </g>
 <g id="22-22-yakuake" transform="translate(27,5)">
  <rect x="5" y="5" width="22" height="22" opacity=".001"/>
  <path d="m18.596 7.9902-5.2988 5.2988 1.4141 1.4141 5.2988-5.2988z" fill="#dfdfdf" opacity=".35"/>
  <path d="m9.4141 7.9902-1.4141 1.4141 4.5898 4.5918-4.5898 4.5898 1.4141 1.4141 6.0059-6.0039zm4.873 14.01v2h9.7129v-2z" fill="#dfdfdf"/>
 </g>
</svg>
